svg/arrow/transfer_vertical_line.svg

<?xml version="1.0" encoding="UTF-8"?>
<svg width="24px" height="24px" viewBox="0 0 24 24" version="1.1" xmlns="http://www.w3.org/2000/svg" xmlns:xlink="http://www.w3.org/1999/xlink">
    <title>transfer_vertical_line</title>
    <g id="Icon" stroke="none" stroke-width="1" fill="none" fill-rule="evenodd">
        <g id="Arrow" transform="translate(-48.000000, -290.000000)">
            <g id="transfer_vertical_line" transform="translate(48.000000, 290.000000)">
                <path d="M24,0 L24,24 L0,24 L0,0 L24,0 Z M12.5935,23.2578 L12.5819,23.2595 L12.5109,23.295 L12.4919,23.2987 L12.4767,23.295 L12.4057,23.2595 C12.3958,23.2564 12.387,23.259 12.3821,23.2649 L12.378,23.2758 L12.3609,23.7031 L12.3659,23.7235 L12.3769,23.7357 L12.4805,23.8097 L12.4953,23.8136 L12.5071,23.8097 L12.6107,23.7357 L12.6233,23.7197 L12.6267,23.7031 L12.6096,23.2758 C12.6076,23.2657 12.601,23.2593 12.5935,23.2578 Z M12.8584,23.1453 L12.8445,23.1473 L12.6598,23.2397 L12.6499,23.2499 L12.6472,23.2611 L12.6651,23.6906 L12.6699,23.7034 L12.6784,23.7105 L12.8793,23.8032 C12.8914,23.8069 12.9022,23.803 12.9078,23.7952 L12.9118,23.7812 L12.8777,23.1665 C12.8753,23.1546 12.8674,23.147 12.8584,23.1453 Z M12.143,23.1473 C12.1332,23.1424 12.1222,23.1453 12.1156,23.1526 L12.1099,23.1665 L12.0758,23.7812 C12.0751,23.7927 12.0828,23.8019 12.0926,23.8046 L12.1083,23.8032 L12.3092,23.7105 L12.3186,23.7024 L12.3225,23.6906 L12.3404,23.2611 L12.3372,23.2485 L12.3278,23.2397 L12.143,23.1473 Z" id="MingCute" fill-rule="nonzero"></path>
                <path d="M14.9995,11.5 C14.9995,12.0523 15.4472,12.5 15.9995,12.5 C16.5517,12.5 16.9995,12.0523 16.9995,11.5 L16.9995,8.99991 L18.7926,8.99991 C20.1289,8.99991 20.7981,7.38431 19.8533,6.43933 L15.0601,1.64544 C14.4742,1.05954 13.5243,1.05956 12.9385,1.64548 L8.14569,6.43937 C7.2009,7.38436 7.87018,8.99991 9.20646,8.99991 L10.9995,8.99991 L10.9995,11.9999 C10.9995,12.0087 10.9997,12.0174 10.9999,12.0261 L10.9999,15.9996 C10.9999,16.2648 11.1052,16.5191 11.2928,16.7067 C11.4803,16.8942 11.7347,16.9996 11.9999,16.9996 L13.586,16.9996 L10.0001,20.5863 L6.41385,16.9996 L7.99995,16.9996 C8.55224,16.9996 8.99995,16.5519 8.99995,15.9996 L8.99995,12.5 C8.99995,11.9477 8.55224,11.5 7.99995,11.5 C7.44767,11.5 6.99995,11.9477 6.99995,12.5 L6.99995,14.9996 L5.20686,14.9996 C3.87056,14.9996 3.20128,16.6152 4.14613,17.5602 L8.93936,22.3541 C9.52518,22.94 10.4751,22.9399 11.0609,22.354 L15.8537,17.5601 C16.7985,16.6151 16.1292,14.9996 14.793,14.9996 L12.9999,14.9996 L12.9999,11.9996 C12.9999,11.9908 12.9998,11.9821 12.9995,11.9734 L12.9995,7.99991 C12.9995,7.7347 12.8942,7.48034 12.7066,7.29281 C12.5191,7.10527 12.2648,6.99991 11.9995,6.99991 L10.4134,6.99991 L13.9993,3.41319 L17.5856,6.99991 L15.9995,6.99991 C15.4472,6.99991 14.9995,7.44763 14.9995,7.99991 L14.9995,11.5 Z" id="路径" fill="#09244B"></path>
            </g>
        </g>
    </g>
</svg>

<svg xmlns="http://www.w3.org/2000/svg" width="24" height="24"><g fill="none" fill-rule="evenodd"><path d="M24 0v24H0V0h24ZM12.594 23.258l-.012.002-.071.035-.02.004-.014-.004-.071-.036c-.01-.003-.019 0-.024.006l-.004.01-.017.428.005.02.01.013.104.074.015.004.012-.004.104-.074.012-.016.004-.017-.017-.427c-.002-.01-.009-.017-.016-.018Zm.264-.113-.014.002-.184.093-.01.01-.003.011.018.43.005.012.008.008.201.092c.012.004.023 0 .029-.008l.004-.014-.034-.614c-.003-.012-.01-.02-.02-.022Zm-.715.002a.023.023 0 0 0-.027.006l-.006.014-.034.614c0 .012.007.02.017.024l.015-.002.201-.093.01-.008.003-.011.018-.43-.003-.012-.01-.01-.184-.092Z"/><path fill="#09244B" d="M15 11.5a1 1 0 1 0 2 0V9h1.793c1.336 0 2.005-1.616 1.06-2.56L15.06 1.644a1.5 1.5 0 0 0-2.122 0L8.147 6.44C7.2 7.384 7.87 9 9.206 9H11V16a1 1 0 0 0 1 1h1.587L10 20.586 6.414 17H8a1 1 0 0 0 1-1v-3.5a1 1 0 1 0-2 0V15H5.207c-1.336 0-2.006 1.615-1.06 2.56l4.792 4.794a1.5 1.5 0 0 0 2.122 0l4.793-4.794c.945-.945.275-2.56-1.061-2.56H13v-3a.76.76 0 0 0 0-.027V8a1 1 0 0 0-1-1h-1.587L14 3.413 17.586 7H16a1 1 0 0 0-1 1v3.5Z"/></g></svg>
